!!!OTL: Die elfjaehrige Markgraefin Ich han in ainem garten gesehen
!!!ARE: Europa, Mitteleuropa, Oesterreich, Salzburg, Mondsee
!!!YOR: 2, S. 294
!!    13?? Handschrift (Ende d. 14. Jh.)
!!!SCT: Q1053E
!!!YEM: Copyright 1995, estate of Helmut Schaffrath.
**kern
*ICvox
*Ivox
!! Mixed meters:  4/4; 6/4
*M4/4
*k[b-]
*F:
{8f
4f
4cc
=1
4a
4f
4f
4g
=2
4f
8f}
{8f
4a
4b-
=3
4cc
4ff
4ee
4dd
=4
4.cc}
{8cc
4ff
4ff
=5
3cc
6cc
3cc
6cc
=6
8a
8a
4r}
{4cc
4cc
=7
3f
6f
3a
6b-
=8
*M6/4
2a
2cc
2a
=9
*M4/4
2g
4f
4g
=10
4.f}
==
!!!AGN: ???
!! Verzierung (Nachschlag) in der ersten Zeile. Melodievergleich
!!    zu Q0053 , anderes Lied. Takteinteilung chaotisch. Hier Taktwechsel
!!    kodiert.
!!!ONB: ESAC (Essen Associative Code) Database: BALLADE
!!!AMT: irregular
!!!AIN: vox
!!!EED: Helmut Schaffrath
!!!EEV: 1.0
*-
